components/ui-node-icon/src/changeDataType/changeDataType.small.svg

<svg width="16" height="16" viewBox="0 0 16 16" fill="none" xmlns="http://www.w3.org/2000/svg">
  <path fill-rule="evenodd" clip-rule="evenodd" d="M4 2H14V12H11H10H4L4 6V5V2ZM3 5V2C3 1.44771 3.44772 1 4 1H14C14.5523 1 15 1.44772 15 2V12C15 12.5523 14.5523 13 14 13H11V14C11 14.5523 10.5523 15 10 15H2C1.44772 15 1 14.5523 1 14V6C1 5.44771 1.44772 5 2 5H3ZM3 6H2L2 14H10V13H4C3.44772 13 3 12.5523 3 12V6ZM7 3.5C7 3.22386 7.22386 3 7.5 3C7.77614 3 8 3.22386 8 3.5V5L10 5V4.5C10 4.22386 10.2239 4 10.5 4C10.7761 4 11 4.22386 11 4.5V5H12.5C12.7761 5 13 5.22386 13 5.5C13 5.77614 12.7761 6 12.5 6H11V8H11.5C11.7761 8 12 8.22386 12 8.5C12 8.77614 11.7761 9 11.5 9H11V10.5C11 10.7761 10.7761 11 10.5 11C10.2239 11 10 10.7761 10 10.5V9H8V9.5C8 9.77614 7.77614 10 7.5 10C7.22386 10 7 9.77614 7 9.5V9H5.5C5.22386 9 5 8.77614 5 8.5C5 8.22386 5.22386 8 5.5 8H7V6H6.5C6.22386 6 6 5.77614 6 5.5C6 5.22386 6.22386 5 6.5 5H7V3.5ZM8 8L10 8V6H8V8Z" fill="currentColor"/>
</svg>

<svg xmlns="http://www.w3.org/2000/svg" width="16" height="16" fill="none" viewBox="0 0 16 16">
  <path fill="currentColor" fill-rule="evenodd" d="M4 2h10v10H4V2ZM3 5V2a1 1 0 0 1 1-1h10a1 1 0 0 1 1 1v10a1 1 0 0 1-1 1h-3v1a1 1 0 0 1-1 1H2a1 1 0 0 1-1-1V6a1 1 0 0 1 1-1h1Zm0 1H2v8h8v-1H4a1 1 0 0 1-1-1V6Zm4-2.5a.5.5 0 0 1 1 0V5h2v-.5a.5.5 0 0 1 1 0V5h1.5a.5.5 0 0 1 0 1H11v2h.5a.5.5 0 0 1 0 1H11v1.5a.5.5 0 0 1-1 0V9H8v.5a.5.5 0 0 1-1 0V9H5.5a.5.5 0 0 1 0-1H7V6h-.5a.5.5 0 0 1 0-1H7V3.5ZM8 8h2V6H8v2Z" clip-rule="evenodd"/>
</svg>
